!!!!SEGMENT:Shinurashima.krn
!!!OTL: 新浦島
!!!OPR:Eiga Banso Kyokusyu,jidai-geki,kouhen
!!!YOY:1928
!!!ONB:Hanamiodori
**kern
*clefG2
*k[]
*C:
*M2/4
=1
8eL
8ffJ
16eeLL
16ee
16ee
16ccJJ
=2
16bLL
16b
16a
16bJJ
8eL
16bL
16bJJ
=3
8eL
16aaL
16ffJJ
16eeLL
16ee
16ee
16ccJJ
=4||
*M3/4
8bL
16aL
16bJJ
8eL
16bL
16bJJ
8e
8r
=5||
*M2/4
8aaL
8ggJ
8aaL
16bbL
16aaJJ
=6
16f#XLL
16ff#X
16ff#
16ff#JJ
16ff#LL
16ff#JJ
8r
=7
8aaL
8bbJ
8aaL
16bbL
16aaJJ
=8
16f#XLL
16bb
16bb
16bbJJ
16bbLL
16bbJJ
8r
=9
16aaKL
8aa
16bbJk
8aaL
8ffnJ
=10
16aaKL
8aa
16aaJk
8aaL
8bbJ
=11
*^
4cc 4ccc	16rc
.	16ccLL 16ccc
.	16cc 16ccc
.	16ccJJ 16ccc
4b 4bb	16rc
.	16bLL 16bb
.	16b 16bb
.	16bJJ 16bb
=12	=12
4g 4gg	16rc
.	16ggLL
.	16gg
.	16ggJJ
4f#X 4ff#X	16rc
.	16f#LL 16ff#
.	16f# 16ff#
.	16f#JJ 16ff#
*v	*v
=13
16eeLL
16eeJ
8eeJ
8eeL
8eeJ
=14
8eeL
8ee
8eeJ
8r
=15
8ddL
16eeL
16ff#XJJ
8ddL
16eeL
16ff#JJ
=16
16dLL
16dd
16dd
16ddJJ
8ddL
16eeL
16ggJJ
=17
16dLL
16dd
16dd
16ddJJ
16ddLL
16ddJ
16r
16gJk
=18
16f#XLL
16f#J
16r
16dJk
16c#XLL
16c#
16c#
16eJJ
=19
16cc#XLL
16cc#
16cc#
16bJJ
16cc#LL
16cc#JJ
8r
=20
8eeL
16bL
16bJJ
16bLL
16b
16b
16bJJ
=21
16f#XLL
16a
16a
16aJJ
16bLL
16bJJ
8r
=22
8eeL
16bL
16bJJ
16bLL
16b
16b
16bJJ
=23
16f#XLL
16a
16a
16aJJ
16bLL
16bJJ
8r
=24
16aKL
8a
16bJk
8aL
8fJ
=25
16eKL
8e
16gJk
16f#XLL
16eJ
8cJ
=26
16dLL
16d
16e
16dJJ
8eL
16fnL
16fJJ
=27
16fLL
16e
16e
16cJJ
8BL
16ccL
16bJJ
=28||
*M3/4
16ccLL
16cc
16b
16aJJ
16bLL
16a
16b
16aJJ
8fL
8aJ
=29||
*M2/4
8r
16bLL
16bJJ
8bL
8bJ
=30
8bL
8b
8bJ
8r
==
*-
!!!ENC: Yukiko Yoden
!!!END: 2023/06/11
